src/components/Home/icons/rotor.svg

<svg width="20" height="20" viewBox="0 0 20 20" xmlns="http://www.w3.org/2000/svg">
  <path fill-rule="evenodd" clip-rule="evenodd" d="M9.89795 5.5C7.41267 5.5 5.39795 7.51472 5.39795 10C5.39795 12.4853 7.41267 14.5 9.89795 14.5C12.3832 14.5 14.3979 12.4853 14.3979 10C14.3954 7.51579 12.3822 5.50258 9.89795 5.5ZM9.89795 13C8.24109 13 6.89795 11.6569 6.89795 10C6.89795 8.34315 8.24109 7 9.89795 7C11.5548 7 12.8979 8.34315 12.8979 10C12.8979 11.6569 11.5548 13 9.89795 13ZM18.1479 10.2025C18.1517 10.0675 18.1517 9.9325 18.1479 9.7975L19.5467 8.05C19.6954 7.86393 19.7469 7.61827 19.6854 7.38813C19.4561 6.52619 19.1131 5.69861 18.6654 4.92719C18.5466 4.72249 18.3381 4.58592 18.1029 4.55875L15.8792 4.31125C15.7867 4.21375 15.6929 4.12 15.5979 4.03L15.3354 1.80063C15.3081 1.56531 15.1711 1.35677 14.9661 1.23813C14.1944 0.791263 13.3668 0.448595 12.5051 0.219063C12.2748 0.157836 12.0292 0.209687 11.8433 0.35875L10.1004 1.75C9.96545 1.75 9.83045 1.75 9.69545 1.75L7.94795 0.354063C7.76188 0.205326 7.51622 0.153827 7.28607 0.215312C6.42428 0.445025 5.59675 0.788016 4.82514 1.23531C4.62044 1.35417 4.48387 1.56268 4.4567 1.79781L4.2092 4.02531C4.1117 4.11844 4.01795 4.21219 3.92795 4.30656L1.69857 4.5625C1.46326 4.58988 1.25471 4.72682 1.13607 4.93188C0.689212 5.70359 0.346544 6.5311 0.117012 7.39281C0.0557857 7.6231 0.107636 7.86878 0.256699 8.05469L1.64795 9.7975C1.64795 9.9325 1.64795 10.0675 1.64795 10.2025L0.252012 11.95C0.103275 12.1361 0.0517762 12.3817 0.113262 12.6119C0.342564 13.4738 0.685576 14.3014 1.13326 15.0728C1.25212 15.2775 1.46063 15.4141 1.69576 15.4412L3.91951 15.6887C4.01264 15.7862 4.10639 15.88 4.20076 15.97L4.46045 18.1994C4.48783 18.4347 4.62477 18.6432 4.82982 18.7619C5.60154 19.2087 6.42905 19.5514 7.29076 19.7809C7.52105 19.8422 7.76673 19.7903 7.95264 19.6413L9.69545 18.25C9.83045 18.2537 9.96545 18.2537 10.1004 18.25L11.8479 19.6488C12.034 19.7975 12.2797 19.849 12.5098 19.7875C13.3718 19.5582 14.1993 19.2152 14.9708 18.7675C15.1755 18.6486 15.312 18.4401 15.3392 18.205L15.5867 15.9813C15.6842 15.8888 15.7779 15.795 15.8679 15.7L18.0973 15.4375C18.3326 15.4101 18.5412 15.2732 18.6598 15.0681C19.1067 14.2964 19.4494 13.4689 19.6789 12.6072C19.7401 12.3769 19.6883 12.1312 19.5392 11.9453L18.1479 10.2025ZM16.6386 9.59313C16.6545 9.86414 16.6545 10.1359 16.6386 10.4069C16.6274 10.5924 16.6855 10.7755 16.8017 10.9206L18.132 12.5828C17.9794 13.0679 17.7839 13.5385 17.5479 13.9891L15.4292 14.2291C15.2447 14.2495 15.0743 14.3377 14.9511 14.4766C14.7706 14.6795 14.5784 14.8717 14.3755 15.0522C14.2366 15.1754 14.1484 15.3458 14.1279 15.5303L13.8926 17.6472C13.4422 17.8833 12.9716 18.0787 12.4864 18.2313L10.8233 16.9009C10.6902 16.7946 10.5249 16.7367 10.3545 16.7369H10.3095C10.0385 16.7528 9.76678 16.7528 9.49576 16.7369C9.31021 16.7257 9.12713 16.7838 8.98201 16.9L7.31514 18.2313C6.83001 18.0786 6.35941 17.8831 5.90889 17.6472L5.66889 15.5312C5.64841 15.3467 5.56022 15.1764 5.42139 15.0531C5.21843 14.8727 5.02622 14.6805 4.84576 14.4775C4.72251 14.3387 4.55215 14.2505 4.36764 14.23L2.25076 13.9937C2.01469 13.5433 1.81923 13.0727 1.6667 12.5875L2.99701 10.9244C3.11317 10.7793 3.17131 10.5962 3.16014 10.4106C3.1442 10.1396 3.1442 9.86789 3.16014 9.59688C3.17131 9.41133 3.11317 9.22824 2.99701 9.08313L1.6667 7.41719C1.81935 6.93206 2.0148 6.46146 2.25076 6.01094L4.3667 5.77094C4.55121 5.75046 4.72157 5.66227 4.84482 5.52344C5.02528 5.32048 5.21749 5.12827 5.42045 4.94781C5.55983 4.82448 5.64838 4.65373 5.66889 4.46875L5.9042 2.35281C6.35467 2.11674 6.82528 1.92128 7.31045 1.76875L8.97357 3.09906C9.11869 3.21522 9.30178 3.27336 9.48732 3.26219C9.75834 3.24625 10.0301 3.24625 10.3011 3.26219C10.4866 3.27336 10.6697 3.21522 10.8148 3.09906L12.4808 1.76875C12.9659 1.9214 13.4365 2.11685 13.887 2.35281L14.127 4.46875C14.1475 4.65326 14.2357 4.82362 14.3745 4.94688C14.5775 5.12733 14.7697 5.31954 14.9501 5.5225C15.0734 5.66133 15.2437 5.74952 15.4283 5.77L17.5451 6.00531C17.7812 6.45578 17.9767 6.9264 18.1292 7.41156L16.7989 9.07469C16.6816 9.22103 16.6234 9.406 16.6358 9.59313H16.6386Z" />
</svg>

<svg xmlns="http://www.w3.org/2000/svg" width="20" height="20">
  <path fill-rule="evenodd" d="M9.898 5.5a4.5 4.5 0 1 0 0 9 4.5 4.5 0 0 0 0-9Zm0 7.5a3 3 0 1 1 0-6 3 3 0 0 1 0 6Zm8.25-2.797c.004-.135.004-.27 0-.405l1.399-1.748a.75.75 0 0 0 .138-.662 10.05 10.05 0 0 0-1.02-2.46.75.75 0 0 0-.562-.37l-2.224-.247a7.46 7.46 0 0 0-.281-.281l-.263-2.23a.75.75 0 0 0-.369-.562c-.772-.447-1.6-.79-2.46-1.019a.75.75 0 0 0-.663.14L10.1 1.75h-.405L7.948.354a.75.75 0 0 0-.662-.139c-.862.23-1.69.573-2.46 1.02a.75.75 0 0 0-.37.563L4.21 4.025a8.533 8.533 0 0 0-.281.282l-2.23.255a.75.75 0 0 0-.562.37c-.447.772-.79 1.6-1.019 2.46a.75.75 0 0 0 .14.663l1.391 1.742v.405L.252 11.95a.75.75 0 0 0-.139.662c.23.862.573 1.69 1.02 2.46a.75.75 0 0 0 .563.37l2.224.247c.093.097.186.191.28.281l.26 2.23a.75.75 0 0 0 .37.562c.772.447 1.599.79 2.46 1.019a.75.75 0 0 0 .663-.14l1.742-1.391c.135.004.27.004.405 0l1.748 1.399a.75.75 0 0 0 .662.139 10.05 10.05 0 0 0 2.46-1.02.75.75 0 0 0 .37-.563l.247-2.224c.097-.092.19-.186.28-.281l2.23-.262a.75.75 0 0 0 .563-.37c.447-.772.79-1.6 1.019-2.46a.75.75 0 0 0-.14-.663l-1.391-1.742Zm-1.51-.61c.016.271.016.543 0 .814a.75.75 0 0 0 .164.514l1.33 1.662a8.581 8.581 0 0 1-.584 1.406l-2.119.24a.75.75 0 0 0-.478.248c-.18.203-.373.395-.575.575a.75.75 0 0 0-.248.478l-.235 2.117a8.56 8.56 0 0 1-1.407.584l-1.663-1.33a.75.75 0 0 0-.469-.164h-.044a6.947 6.947 0 0 1-.814 0 .75.75 0 0 0-.514.163l-1.667 1.331a8.594 8.594 0 0 1-1.406-.584l-.24-2.116a.75.75 0 0 0-.248-.478 6.932 6.932 0 0 1-.575-.576.75.75 0 0 0-.478-.247l-2.117-.236a8.557 8.557 0 0 1-.584-1.406l1.33-1.664a.75.75 0 0 0 .163-.513 6.93 6.93 0 0 1 0-.814.75.75 0 0 0-.163-.514l-1.33-1.666c.152-.485.348-.956.584-1.406l2.116-.24a.75.75 0 0 0 .478-.248c.18-.203.372-.395.575-.575a.75.75 0 0 0 .249-.48l.235-2.115a8.56 8.56 0 0 1 1.406-.584l1.664 1.33a.75.75 0 0 0 .513.163 6.93 6.93 0 0 1 .814 0 .75.75 0 0 0 .514-.163l1.666-1.33c.485.152.956.348 1.406.584l.24 2.116a.75.75 0 0 0 .247.478c.204.18.396.373.576.575a.75.75 0 0 0 .478.248l2.117.235c.236.45.432.921.584 1.407L16.8 9.075a.75.75 0 0 0-.163.518h.003Z" clip-rule="evenodd"/>
</svg>
